X:2508
T:Polska från Södermanland
T:Svenska Folkdansar H3 nr 20
O:Södermanland
B:Traditioner av Svenska Folkdansar Häfte 3, nr 20
R:Polska
Z:Nils L
M:3/4
L:1/8
K:F
Tfe fa gf | Ted cd ec | Tfe fa gf | ed c2 c2 ::
cc d2 c2 | (B2 A)G AF | cc d2 c2 | (B2 A)G AF | BA Bd cB | (AG) F2 F2 :|
(:musicend:)
(:music:)
